X: 1419
T: Mıtrıbâ Mecliste
C: Ahmet Avni Konuk
O: Turkey
F: http://compmusic.upf.edu/node/140
N: suzidilara--kupe--devrirevanihindi--mitriba_meclisde--ahmet_avni_konuk
N: makam= suzidilara
N: form= kupe
N: usul= devrirevanihindi = 14/8
M: 14/8
L: 1/16
K: C ^9/8f   
Q: 1/4=102
%%MIDI tuningsystem comma53
c4 c2c3BB2 {c}BAA2 cBA^G A6z2  | A4 A2A2 c2_1/4B2 A2AG ^F2AG G6A2  | 
w:  Mıt rı bâ  *  *  *  *  *  mec  |  lis te  her  *  *  *  bir   | 
ABA2 B2c2 Bdc4d4e2 e3d edc2  | BcB2 c2B4d2 c2Bc BAA6 z4  | 
w:  nağ *  *  me  i  *  *  *  â  |  teş *  *  *  *  fe şân    | 
e2d2 e2e6 z2g2 =f2e2 e3d edc2  | cBc2 G2A2 B2c2 d2c2 B2dc c6z2  | 
w:  Â *  şık_ ı  bî  |  çâ *  *  re ye  *  *  *  Sûz_  | 
c2B2 c2d2 =f2e2 d2d2 c2B2 BcBA BAG2  | \
w:  i  *  Di lâ *  *  *  râ  | 
A_7/8BAB AGAc _2/4BAAG G^FG2 F2AG G6z2  | 
w:  dır  *  *  *  *  *  *  *  *  *  he *  *  *  man    | 
|


